X:3
T:Fairy Dance
M:4/4
L:1/8
Z:abc2nwc
K:G
|:B2BG B2BG|B2BG FG Ac|B2BG cB AG|FD EF GA Bc:|
|:d2dB e2ed|cB cA d2dc|B2BG cB AG|
[1FD EF GA Bc:|[2FD EF G2G2|]
